; generated by PrusaSlicer 2.2.0+win64 on 2020-06-16 at 14:33:41 UTC

; 

; external perimeters extrusion width = 0.45mm
; perimeters extrusion width = 0.45mm
; infill extrusion width = 0.45mm
; solid infill extrusion width = 0.45mm
; top infill extrusion width = 0.40mm
; first layer extrusion width = 0.42mm

; external perimeters extrusion width = 0.45mm
; perimeters extrusion width = 0.45mm
; infill extrusion width = 0.45mm
; solid infill extrusion width = 0.45mm
; top infill extrusion width = 0.40mm
; first layer extrusion width = 0.42mm

; external perimeters extrusion width = 0.45mm
; perimeters extrusion width = 0.45mm
; infill extrusion width = 0.45mm
; solid infill extrusion width = 0.45mm
; top infill extrusion width = 0.40mm
; first layer extrusion width = 0.42mm

M73 P0 R64
M73 Q0 S65
M201 X1000 Y1000 Z1000 E8000 ; sets maximum accelerations, mm/sec^2
M203 X200 Y200 Z12 E120 ; sets maximum feedrates, mm/sec
M204 P1250 R1250 T1250 ; sets acceleration (P, T) and retract acceleration (R), mm/sec^2
M205 X8.00 Y8.00 Z0.40 E4.50 ; sets the jerk limits, mm/sec
M205 S0 T0 ; sets the minimum extruding and travel feed rate, mm/sec
M107
M862.3 P "MK3SMMU2S" ; printer model check
M862.1 P0.4 ; nozzle diameter check
M115 U3.8.1 ; tell printer latest fw version
G90 ; use absolute coordinates
M83 ; extruder relative mode
M104 S215 ; set extruder temp
M140 S60 ; set bed temp
M190 S60 ; wait for bed temp
M109 S215 ; wait for extruder temp
G28 W ; home all without mesh bed level
G80 ; mesh bed leveling

; Send the filament type to the MMU2.0 unit.
; E stands for extruder number, F stands for filament type (0: default; 1:flex; 2: PVA)
M403 E0 F0
M403 E1 F0
M403 E2 F0
M403 E3 F0
M403 E4 F0


;go outside print area
G1 Y-3.0 F1000.0
G1 Z0.4 F1000.0
; select extruder
T2
; initial load
G1 X55.0 E29.0 F1073.0
M73 Q0 S64
M73 P0 R64
G1 X5.0 E29.0 F1800.0
G1 X55.0 E8.0 F2000.0
G1 Z0.3 F1000.0
G92 E0.0
G1 X240.0 E25.0 F2200.0
G1 Y-2.0 F1000.0
G1 X55.0 E25 F1400.0
G1 Z0.20 F1000.0
G1 X5.0 E4.0 F1000.0
G92 E0.0


M221 S95
G92 E0.0
G21 ; set units to millimeters
G90 ; use absolute coordinates
M83 ; use relative distances for extrusion
T2
M900 K30 ; Filament gcode
G1 Z0.200 F10800.000
;BEFORE_LAYER_CHANGE
G92 E0.0
;0.2


G1 E-0.80000 F2100.00000
G1 Z0.800 F10800.000
G1 Z0.200
;AFTER_LAYER_CHANGE
;0.2
G1 E-2.20000 F2100.00000
G1 Z0.800 F10800.000
G1 X155.943 Y123.913
G1 Z0.200
G1 E3.00000 F2100.00000
;-------------------------------------
; CP WIPE TOWER FIRST LAYER BRIM START
G1  X155.943 Y137.973  E0.8016 F2400
G1  X153.400 Y138.430   F7000
G1  Y123.456  E0.6260 F2100
G1  X92.486  E2.5466
G1  Y138.430  E0.6260
G1  X153.400  E2.5466
G1  X153.857 Y138.887   F7000
G1  Y122.999  E0.6642 F2100
G1  X92.029  E2.5849
G1  Y138.887  E0.6642
G1  X153.857  E2.5849
G1  X154.314 Y139.344   F7000
G1  Y122.542  E0.7025 F2100
G1  X91.572  E2.6231
G1  Y139.344  E0.7025
G1  X154.314  E2.6231
G1  X154.771 Y139.801   F7000
G1  Y122.085  E0.7407 F2100
G1  X91.115  E2.6613
G1  Y139.801  E0.7407
G1  X154.771  E2.6613
G1  X152.943 Y137.973   F7000
G1  X92.943 
G1  X152.943 
; CP WIPE TOWER FIRST LAYER BRIM END
;-----------------------------------
G1  X152.443 Y124.413   F7200
;--------------------
; CP EMPTY GRID START
; layer #1
G1  X152.943 
G1  Y123.913 
G1  Y137.973  E0.5344 F1450
G1  X92.943  E2.2804
G1  Y123.913  E0.5344
G1  X152.943  E2.2804
G1  X152.443 
G1  Y124.413 
G1  Y137.473  E0.4964
G1  X93.443  E2.2424
G1  Y124.413  E0.4964
G1  X152.443  E2.2424
G1  Y137.473 
G1  X151.943 Y136.950   E0.0275
G1  X93.943  E2.2044
G1  Y136.426  E0.0199
G1  X151.943  E2.2044
G1  Y135.903  E0.0199
G1  X93.943  E2.2044
M73 Q2 S63
M73 P2 R63
G1  Y135.380  E0.0199
G1  X151.943  E2.2044
G1  Y134.856  E0.0199
G1  X93.943  E2.2044
G1  Y134.333  E0.0199
G1  X151.943  E2.2044
G1  Y133.810  E0.0199
G1  X93.943  E2.2044
G1  Y133.286  E0.0199
G1  X151.943  E2.2044
G1  Y132.763  E0.0199
G1  X93.943  E2.2044
G1  Y132.240  E0.0199
G1  X151.943  E2.2044
G1  Y131.716  E0.0199
G1  X93.943  E2.2044
G1  Y131.193  E0.0199
G1  X151.943  E2.2044
G1  Y130.670  E0.0199
G1  X93.943  E2.2044
G1  Y130.146  E0.0199
G1  X151.943  E2.2044
G1  Y129.623  E0.0199
G1  X93.943  E2.2044
G1  Y129.100  E0.0199
G1  X151.943  E2.2044
G1  Y128.576  E0.0199
G1  X93.943  E2.2044
G1  Y128.053  E0.0199
G1  X151.943  E2.2044
G1  Y127.530  E0.0199
G1  X93.943  E2.2044
G1  Y127.006  E0.0199
G1  X151.943  E2.2044
G1  Y126.483  E0.0199
G1  X93.943  E2.2044
G1  Y125.960  E0.0199
G1  X151.943  E2.2044
G1  Y125.436  E0.0199
G1  X93.943  E2.2044
G1  Y124.913  E0.0199
G1  X151.943  E2.2044
G1  X93.943 
; CP EMPTY GRID END
;------------------







G1 F8640.000
G1 X90.652 Y124.913 E-0.76000
G1 E-0.04000 F2100.00000
G1 Z0.800 F10800.000
G1 X89.973 Y142.225
G1 Z0.200
G1 E0.80000 F2100.00000
M204 S1000
G1 F1200.000
G1 X89.203 Y141.709 E0.02907
G1 X88.878 Y141.302 E0.01633
G1 X88.648 Y140.830 E0.01645
G1 X80.407 Y117.458 E0.77704
G1 X80.155 Y116.431 E0.03317
G1 X80.124 Y69.852 E1.46044
G1 X80.241 Y68.913 E0.02967
G1 X80.462 Y68.223 E0.02271
G1 X80.940 Y67.371 E0.03065
G1 X81.405 Y66.818 E0.02267
G1 X81.960 Y66.351 E0.02271
G1 X82.813 Y65.874 E0.03065
G1 X83.505 Y65.653 E0.02278
G1 X84.454 Y65.537 E0.02998
G1 X165.504 Y65.536 E2.54126
M73 Q3 S62
M73 P3 R62
G1 X166.218 Y65.598 E0.02249
G1 X167.144 Y65.857 E0.03013
G1 X167.787 Y66.182 E0.02259
G1 X168.505 Y66.733 E0.02839
G1 X168.978 Y67.255 E0.02207
G1 X169.363 Y67.859 E0.02247
G1 X169.701 Y68.689 E0.02810
G1 X169.851 Y69.450 E0.02430
G1 X169.844 Y116.447 E1.47357
G1 X169.694 Y117.160 E0.02283
G1 X169.340 Y118.012 E0.02894
G1 X157.097 Y141.148 E0.82072
G1 X156.679 Y141.712 E0.02201
G1 X155.922 Y142.221 E0.02860
G1 X155.025 Y142.407 E0.02872
G1 X90.886 Y142.407 E2.01102
G1 X90.032 Y142.237 E0.02731
G1 F8640.000
G1 X89.203 Y141.709 E-0.22696
G1 X88.878 Y141.302 E-0.12025
G1 X88.648 Y140.830 E-0.12113
G1 X88.228 Y139.639 E-0.29167
G1 E-0.04000 F2100.00000
G1 Z0.800 F10800.000
G1 X84.187 Y117.083
G1 Z0.200
G1 E0.80000 F2100.00000
G1 F1200.000
G1 X83.894 Y116.962 E0.00991
G1 X83.644 Y116.770 E0.00991
G1 X83.539 Y116.650 E0.00497
G1 X83.451 Y116.519 E0.00497
G1 X83.330 Y116.227 E0.00991
G1 X83.287 Y115.887 E0.01072
G1 X83.287 Y69.939 E1.44068
G1 X83.330 Y69.600 E0.01072
G1 X83.451 Y69.308 E0.00991
G1 X83.644 Y69.057 E0.00991
G1 X83.894 Y68.864 E0.00991
G1 X84.187 Y68.743 E0.00991
G1 X84.526 Y68.700 E0.01072
G1 X165.474 Y68.700 E2.53808
G1 X165.813 Y68.743 E0.01072
G1 X166.106 Y68.864 E0.00991
G1 X166.356 Y69.057 E0.00991
G1 X166.549 Y69.308 E0.00991
G1 X166.670 Y69.600 E0.00991
G1 X166.713 Y69.939 E0.01072
G1 X166.713 Y115.887 E1.44068
G1 X166.670 Y116.227 E0.01072
G1 X166.549 Y116.519 E0.00991
G1 X166.356 Y116.770 E0.00991
G1 X166.106 Y116.962 E0.00991
G1 X165.813 Y117.083 E0.00991
G1 X165.474 Y117.126 E0.01072
G1 X84.526 Y117.126 E2.53808
G1 X84.245 Y117.095 E0.00885
G1 X84.172 Y117.465 F10800.000
G1 F1200.000
G1 X83.892 Y117.381 E0.00916
G1 X83.705 Y117.289 E0.00652
G1 X83.533 Y117.174 E0.00652
G1 X83.376 Y117.037 E0.00652
G1 X83.239 Y116.881 E0.00652
G1 X83.124 Y116.708 E0.00652
G1 X83.032 Y116.521 E0.00652
G1 X82.965 Y116.324 E0.00652
G1 X82.924 Y116.121 E0.00652
G1 X82.910 Y115.900 E0.00694
G1 X82.910 Y69.927 E1.44146
G1 X82.924 Y69.706 E0.00694
G1 X82.965 Y69.502 E0.00652
G1 X83.032 Y69.305 E0.00652
G1 X83.124 Y69.119 E0.00652
G1 X83.239 Y68.946 E0.00652
G1 X83.376 Y68.789 E0.00652
G1 X83.533 Y68.652 E0.00652
G1 X83.705 Y68.537 E0.00652
G1 X83.892 Y68.445 E0.00652
G1 X84.089 Y68.378 E0.00652
G1 X84.293 Y68.338 E0.00652
G1 X84.513 Y68.323 E0.00694
G1 X165.487 Y68.323 E2.53886
G1 X165.707 Y68.338 E0.00694
G1 X165.911 Y68.378 E0.00652
G1 X166.108 Y68.445 E0.00652
G1 X166.295 Y68.537 E0.00652
G1 X166.467 Y68.652 E0.00652
G1 X166.624 Y68.789 E0.00652
G1 X166.761 Y68.946 E0.00652
G1 X166.876 Y69.119 E0.00652
G1 X166.968 Y69.305 E0.00652
G1 X167.035 Y69.502 E0.00652
G1 X167.076 Y69.706 E0.00652
G1 X167.090 Y69.927 E0.00694
G1 X167.090 Y115.900 E1.44146
G1 X167.076 Y116.121 E0.00694
G1 X167.035 Y116.324 E0.00652
G1 X166.968 Y116.521 E0.00652
G1 X166.876 Y116.708 E0.00652
G1 X166.761 Y116.881 E0.00652
G1 X166.624 Y117.037 E0.00652
G1 X166.467 Y117.174 E0.00652
G1 X166.295 Y117.289 E0.00652
G1 X166.108 Y117.381 E0.00652
G1 X165.911 Y117.448 E0.00652
G1 X165.707 Y117.489 E0.00652
G1 X165.487 Y117.503 E0.00694
G1 X84.513 Y117.503 E2.53886
G1 X84.231 Y117.476 E0.00891
G1 X84.077 Y117.188 F10800.000
G1 F8640.000
G1 X83.892 Y117.381 E-0.08124
G1 X83.705 Y117.289 E-0.04800
G1 X83.533 Y117.174 E-0.04800
G1 X83.376 Y117.037 E-0.04800
G1 X83.239 Y116.881 E-0.04800
G1 X83.124 Y116.708 E-0.04800
G1 X83.032 Y116.521 E-0.04800
G1 X82.965 Y116.324 E-0.04800
G1 X82.924 Y116.121 E-0.04800
G1 X82.910 Y115.900 E-0.05110
G1 X82.910 Y114.844 E-0.24368
G1 E-0.04000 F2100.00000
G1 Z0.800 F10800.000
G1 X166.600 Y70.234
G1 Z0.200
G1 E0.80000 F2100.00000
G1 F1200.000
G1 X165.361 Y68.995 E0.05496
G1 X164.827 Y68.995 E0.01673
G1 X166.430 Y70.598 E0.07110
G1 X166.430 Y71.131 E0.01673
G1 X164.294 Y68.995 E0.09476
G1 X163.760 Y68.995 E0.01673
G1 X166.430 Y71.665 E0.11842
G1 X166.430 Y72.198 E0.01673
G1 X163.227 Y68.995 E0.14209
G1 X162.693 Y68.995 E0.01673
G1 X166.430 Y72.732 E0.16575
G1 X166.430 Y73.265 E0.01673
G1 X162.160 Y68.995 E0.18942
G1 X161.626 Y68.994 E0.01673
G1 X166.430 Y73.798 E0.21308
G1 X166.430 Y74.332 E0.01673
G1 X161.093 Y68.994 E0.23674
G1 X160.559 Y68.994 E0.01673
G1 X166.430 Y74.865 E0.26041
G1 X166.430 Y75.399 E0.01673
G1 X160.026 Y68.994 E0.28407
G1 X159.492 Y68.994 E0.01673
G1 X166.430 Y75.932 E0.30774
G1 X166.430 Y76.466 E0.01673
G1 X158.959 Y68.994 E0.33140
G1 X158.425 Y68.994 E0.01673
G1 X166.430 Y76.999 E0.35506
G1 X166.430 Y77.532 E0.01673
G1 X157.892 Y68.994 E0.37873
G1 X157.358 Y68.994 E0.01673
G1 X166.430 Y78.066 E0.40239
G1 X166.430 Y78.599 E0.01673
G1 X156.825 Y68.994 E0.42605
G1 X156.291 Y68.994 E0.01673
G1 X166.430 Y79.133 E0.44972
G1 X166.430 Y79.666 E0.01673
G1 X155.758 Y68.994 E0.47338
G1 X155.224 Y68.994 E0.01673
G1 X166.430 Y80.200 E0.49705
G1 X166.430 Y80.733 E0.01673
G1 X154.691 Y68.993 E0.52071
G1 X154.157 Y68.993 E0.01673
G1 X166.430 Y81.266 E0.54437
G1 X166.430 Y81.800 E0.01673
G1 X153.623 Y68.993 E0.56804
G1 X153.090 Y68.993 E0.01673
G1 X166.430 Y82.333 E0.59170
G1 X166.430 Y82.867 E0.01673
G1 X152.556 Y68.993 E0.61537
G1 X152.023 Y68.993 E0.01673
G1 X166.430 Y83.400 E0.63903
G1 X166.430 Y83.934 E0.01673
G1 X151.489 Y68.993 E0.66269
G1 X150.956 Y68.993 E0.01673
G1 X166.430 Y84.467 E0.68636
G1 X166.430 Y85.000 E0.01673
G1 X150.422 Y68.993 E0.71002
G1 X149.889 Y68.993 E0.01673
G1 X166.430 Y85.534 E0.73369
G1 X166.430 Y86.067 E0.01673
G1 X149.355 Y68.993 E0.75735
G1 X148.822 Y68.993 E0.01673
G1 X166.430 Y86.601 E0.78101
G1 X166.430 Y87.134 E0.01673
G1 X148.288 Y68.992 E0.80468
G1 X147.755 Y68.992 E0.01673
G1 X166.430 Y87.668 E0.82834
M73 Q5 S61
M73 P5 R61
G1 X166.430 Y88.201 E0.01673
G1 X147.221 Y68.992 E0.85200
G1 X146.688 Y68.992 E0.01673
G1 X166.430 Y88.735 E0.87567
G1 X166.430 Y89.268 E0.01673
G1 X146.154 Y68.992 E0.89933
G1 X145.621 Y68.992 E0.01673
G1 X166.430 Y89.801 E0.92300
G1 X166.430 Y90.335 E0.01673
G1 X145.087 Y68.992 E0.94666
G1 X144.554 Y68.992 E0.01673
G1 X166.430 Y90.868 E0.97032
G1 X166.430 Y91.402 E0.01673
G1 X144.020 Y68.992 E0.99399
G1 X143.487 Y68.992 E0.01673
G1 X166.430 Y91.935 E1.01765
G1 X166.430 Y92.469 E0.01673
G1 X142.953 Y68.992 E1.04132
G1 X142.420 Y68.992 E0.01673
G1 X166.430 Y93.002 E1.06498
G1 X166.430 Y93.535 E0.01673
G1 X141.886 Y68.992 E1.08864
G1 X141.353 Y68.991 E0.01673
G1 X166.430 Y94.069 E1.11231
G1 X166.430 Y94.602 E0.01673
G1 X140.819 Y68.991 E1.13597
G1 X140.286 Y68.991 E0.01673
G1 X166.430 Y95.136 E1.15963
G1 X166.430 Y95.669 E0.01673
G1 X139.752 Y68.991 E1.18330
G1 X139.219 Y68.991 E0.01673
G1 X166.430 Y96.203 E1.20696
G1 X166.430 Y96.736 E0.01673
G1 X138.685 Y68.991 E1.23063
G1 X138.152 Y68.991 E0.01673
G1 X166.430 Y97.269 E1.25429
G1 X166.430 Y97.803 E0.01673
G1 X137.618 Y68.991 E1.27795
G1 X137.085 Y68.991 E0.01673
G1 X166.430 Y98.336 E1.30162
G1 X166.430 Y98.870 E0.01673
G1 X136.551 Y68.991 E1.32528
G1 X136.018 Y68.991 E0.01673
G1 X166.430 Y99.403 E1.34895
G1 X166.430 Y99.937 E0.01673
G1 X135.484 Y68.991 E1.37261
G1 X134.951 Y68.991 E0.01673
G1 X166.430 Y100.470 E1.39627
G1 X166.430 Y101.003 E0.01673
G1 X134.417 Y68.990 E1.41994
G1 X133.884 Y68.990 E0.01673
G1 X166.430 Y101.537 E1.44360
G1 X166.430 Y102.070 E0.01673
G1 X133.350 Y68.990 E1.46727
G1 X132.817 Y68.990 E0.01673
G1 X166.430 Y102.604 E1.49093
G1 X166.430 Y103.137 E0.01673
G1 X132.283 Y68.990 E1.51459
G1 X131.750 Y68.990 E0.01673
G1 X166.430 Y103.671 E1.53826
G1 X166.430 Y104.204 E0.01673
G1 X131.216 Y68.990 E1.56192
M73 Q6 S60
M73 P6 R60
G1 X130.683 Y68.990 E0.01673
G1 X166.430 Y104.737 E1.58558
G1 X166.430 Y105.271 E0.01673
G1 X130.149 Y68.990 E1.60925
G1 X129.616 Y68.990 E0.01673
G1 X166.430 Y105.804 E1.63291
G1 X166.430 Y106.338 E0.01673
G1 X129.082 Y68.990 E1.65658
G1 X128.548 Y68.990 E0.01673
G1 X166.430 Y106.871 E1.68024
G1 X166.430 Y107.405 E0.01673
G1 X128.015 Y68.989 E1.70390
G1 X127.481 Y68.989 E0.01673
G1 X166.430 Y107.938 E1.72757
G1 X166.430 Y108.471 E0.01673
G1 X126.948 Y68.989 E1.75123
G1 X126.414 Y68.989 E0.01673
G1 X166.430 Y109.005 E1.77490
G1 X166.430 Y109.538 E0.01673
G1 X125.881 Y68.989 E1.79856
G1 X125.347 Y68.989 E0.01673
G1 X166.430 Y110.072 E1.82222
G1 X166.430 Y110.605 E0.01673
G1 X124.814 Y68.989 E1.84589
G1 X124.280 Y68.989 E0.01673
G1 X166.430 Y111.139 E1.86955
G1 X166.430 Y111.672 E0.01673
G1 X123.747 Y68.989 E1.89321
G1 X123.213 Y68.989 E0.01673
G1 X166.430 Y112.206 E1.91688
G1 X166.430 Y112.739 E0.01673
G1 X122.680 Y68.989 E1.94054
G1 X122.146 Y68.989 E0.01673
G1 X166.430 Y113.272 E1.96421
G1 X166.430 Y113.806 E0.01673
G1 X121.613 Y68.989 E1.98787
G1 X121.079 Y68.988 E0.01673
G1 X166.430 Y114.339 E2.01153
G1 X166.430 Y114.873 E0.01673
G1 X120.546 Y68.988 E2.03520
G1 X120.012 Y68.988 E0.01673
G1 X166.430 Y115.406 E2.05886
M73 Q8 S59
M73 P8 R59
G1 X166.422 Y115.932 E0.01649
G1 X119.479 Y68.988 E2.08218
G1 X118.945 Y68.988 E0.01673
G1 X166.311 Y116.354 E2.10091
G1 X166.155 Y116.568 E0.00831
G1 X166.062 Y116.639 E0.00365
G1 X118.412 Y68.988 E2.11355
G1 X117.878 Y68.988 E0.01673
G1 X165.702 Y116.812 E2.12124
G1 X165.456 Y116.843 E0.00778
G1 X165.200 Y116.843 E0.00804
G1 X117.345 Y68.988 E2.12263
G1 X116.811 Y68.988 E0.01673
G1 X164.667 Y116.843 E2.12263
G1 X164.133 Y116.843 E0.01673
G1 X116.278 Y68.988 E2.12263
G1 X115.744 Y68.988 E0.01673
G1 X163.600 Y116.843 E2.12264
G1 X163.066 Y116.843 E0.01673
G1 X115.211 Y68.988 E2.12264
G1 X114.677 Y68.987 E0.01673
G1 X162.533 Y116.843 E2.12264
G1 X162.000 Y116.843 E0.01673
G1 X114.144 Y68.987 E2.12265
G1 X113.610 Y68.987 E0.01673
G1 X161.466 Y116.843 E2.12265
G1 X160.933 Y116.843 E0.01673
G1 X113.077 Y68.987 E2.12265
G1 X112.543 Y68.987 E0.01673
G1 X160.399 Y116.843 E2.12266
G1 X159.866 Y116.843 E0.01673
G1 X112.010 Y68.987 E2.12266
G1 X111.476 Y68.987 E0.01673
G1 X159.332 Y116.843 E2.12266
G1 X158.799 Y116.843 E0.01673
G1 X110.943 Y68.987 E2.12267
G1 X110.409 Y68.987 E0.01673
G1 X158.266 Y116.843 E2.12267
M73 Q9 S58
M73 P10 R58
G1 X157.732 Y116.843 E0.01673
G1 X109.876 Y68.987 E2.12267
G1 X109.342 Y68.987 E0.01673
G1 X157.199 Y116.843 E2.12268
G1 X156.665 Y116.843 E0.01673
G1 X108.809 Y68.987 E2.12268
G1 X108.275 Y68.987 E0.01673
G1 X156.132 Y116.843 E2.12269
G1 X155.598 Y116.843 E0.01673
G1 X107.742 Y68.986 E2.12269
G1 X107.208 Y68.986 E0.01673
G1 X155.065 Y116.843 E2.12269
G1 X154.532 Y116.843 E0.01673
G1 X106.675 Y68.986 E2.12270
G1 X106.141 Y68.986 E0.01673
G1 X153.998 Y116.843 E2.12270
G1 X153.465 Y116.843 E0.01673
G1 X105.608 Y68.986 E2.12270
G1 X105.074 Y68.986 E0.01673
G1 X152.931 Y116.843 E2.12271
G1 X152.398 Y116.843 E0.01673
G1 X104.541 Y68.986 E2.12271
G1 X104.007 Y68.986 E0.01673
G1 X151.864 Y116.843 E2.12271
G1 X151.331 Y116.843 E0.01673
G1 X103.473 Y68.986 E2.12272
G1 X102.940 Y68.986 E0.01673
G1 X150.797 Y116.843 E2.12272
G1 X150.264 Y116.843 E0.01673
G1 X102.406 Y68.986 E2.12272
G1 X101.873 Y68.986 E0.01673
G1 X149.731 Y116.843 E2.12273
